X: 34619
T: Road To Abbeyfeale, The
R: jig
M: 6/8
K: Gmajor
|:B|d2 d gdB|cAG F2 A|d^cd gdB|cAB c2 A|
d^cd gdB|cAG FF/G/A|dd/e/f gdB|cAF G2:|
|:B/c/|dgg dgg|fdc AA/B/c|dgg bgg|fdB c2 A|
d2 g dgB|fdc A2 ^c|d^cd gdB|cAF G2:|

